images/16758675.svg

<?xml version="1.0" encoding="UTF-8"?>
<svg xmlns="http://www.w3.org/2000/svg" xmlns:xlink="http://www.w3.org/1999/xlink" width="300pt" height="300pt" viewBox="0 0 300 300" version="1.1">
<defs>
<g>
<symbol overflow="visible" id="glyph0-0">
<path style="stroke:none;" d="M 0.453125 1.59375 L 0.453125 -6.34375 L 4.953125 -6.34375 L 4.953125 1.59375 Z M 0.953125 1.09375 L 4.453125 1.09375 L 4.453125 -5.84375 L 0.953125 -5.84375 Z M 0.953125 1.09375 "/>
</symbol>
<symbol overflow="visible" id="glyph0-1">
<path style="stroke:none;" d="M 3.546875 -5.953125 C 2.898438 -5.953125 2.382812 -5.710938 2 -5.234375 C 1.625 -4.753906 1.4375 -4.101562 1.4375 -3.28125 C 1.4375 -2.445312 1.625 -1.789062 2 -1.3125 C 2.382812 -0.832031 2.898438 -0.59375 3.546875 -0.59375 C 4.191406 -0.59375 4.703125 -0.832031 5.078125 -1.3125 C 5.453125 -1.789062 5.640625 -2.445312 5.640625 -3.28125 C 5.640625 -4.101562 5.453125 -4.753906 5.078125 -5.234375 C 4.703125 -5.710938 4.191406 -5.953125 3.546875 -5.953125 Z M 3.546875 -6.6875 C 4.460938 -6.6875 5.195312 -6.375 5.75 -5.75 C 6.300781 -5.132812 6.578125 -4.3125 6.578125 -3.28125 C 6.578125 -2.238281 6.300781 -1.410156 5.75 -0.796875 C 5.195312 -0.179688 4.460938 0.125 3.546875 0.125 C 2.617188 0.125 1.878906 -0.179688 1.328125 -0.796875 C 0.773438 -1.410156 0.5 -2.238281 0.5 -3.28125 C 0.5 -4.3125 0.773438 -5.132812 1.328125 -5.75 C 1.878906 -6.375 2.617188 -6.6875 3.546875 -6.6875 Z M 3.546875 -6.6875 "/>
</symbol>
<symbol overflow="visible" id="glyph0-2">
<path style="stroke:none;" d="M 0.890625 -6.5625 L 2.078125 -6.5625 L 4.984375 -1.078125 L 4.984375 -6.5625 L 5.84375 -6.5625 L 5.84375 0 L 4.65625 0 L 1.75 -5.484375 L 1.75 0 L 0.890625 0 Z M 0.890625 -6.5625 "/>
</symbol>
<symbol overflow="visible" id="glyph0-3">
<path style="stroke:none;" d="M 0.890625 -6.5625 L 1.765625 -6.5625 L 1.765625 -3.875 L 5 -3.875 L 5 -6.5625 L 5.890625 -6.5625 L 5.890625 0 L 5 0 L 5 -3.125 L 1.765625 -3.125 L 1.765625 0 L 0.890625 0 Z M 0.890625 -6.5625 "/>
</symbol>
</g>
</defs>
<g id="surface51749">
<rect x="0" y="0" width="300" height="300" style="fill:rgb(100%,100%,100%);fill-opacity:1;stroke:none;"/>
<path style="fill:none;stroke-width:1.2;stroke-linecap:butt;stroke-linejoin:miter;stroke:rgb(0%,0%,0%);stroke-opacity:1;stroke-miterlimit:10;" d="M 35.25 240.023438 L 37.828125 216.402344 "/>
<path style="fill:none;stroke-width:1.2;stroke-linecap:butt;stroke-linejoin:miter;stroke:rgb(0%,0%,0%);stroke-opacity:1;stroke-miterlimit:10;" d="M 41.066406 238.265625 L 43.128906 219.371094 "/>
<path style="fill:none;stroke-width:1.2;stroke-linecap:butt;stroke-linejoin:miter;stroke:rgb(0%,0%,0%);stroke-opacity:1;stroke-miterlimit:10;" d="M 29.949219 237.054688 L 32.011719 218.15625 "/>
<path style="fill:none;stroke-width:1.2;stroke-linecap:butt;stroke-linejoin:miter;stroke:rgb(0%,0%,0%);stroke-opacity:1;stroke-miterlimit:10;" d="M 37.828125 216.402344 L 40.402344 192.78125 "/>
<path style="fill:none;stroke-width:1.2;stroke-linecap:butt;stroke-linejoin:miter;stroke:rgb(0%,0%,0%);stroke-opacity:1;stroke-miterlimit:10;" d="M 40.402344 192.78125 L 62.148438 183.199219 "/>
<path style="fill:none;stroke-width:1.2;stroke-linecap:butt;stroke-linejoin:miter;stroke:rgb(0%,0%,0%);stroke-opacity:1;stroke-miterlimit:10;" d="M 62.148438 183.199219 L 64.726562 159.578125 "/>
<path style="fill:none;stroke-width:1.2;stroke-linecap:butt;stroke-linejoin:miter;stroke:rgb(0%,0%,0%);stroke-opacity:1;stroke-miterlimit:10;" d="M 64.726562 159.578125 L 75.597656 154.789062 "/>
<path style="fill:none;stroke-width:1.2;stroke-linecap:butt;stroke-linejoin:miter;stroke:rgb(100%,0%,0%);stroke-opacity:1;stroke-miterlimit:10;" d="M 75.597656 154.789062 L 86.472656 150 "/>
<path style="fill:none;stroke-width:1.2;stroke-linecap:butt;stroke-linejoin:miter;stroke:rgb(100%,0%,0%);stroke-opacity:1;stroke-miterlimit:10;" d="M 86.472656 150 L 87.757812 138.1875 "/>
<path style="fill:none;stroke-width:1.2;stroke-linecap:butt;stroke-linejoin:miter;stroke:rgb(0%,0%,100%);stroke-opacity:1;stroke-miterlimit:10;" d="M 87.757812 138.1875 L 89.046875 126.378906 "/>
<path style=" stroke:none;fill-rule:nonzero;fill:rgb(100%,100%,100%);fill-opacity:1;" d="M 82.472656 144.5 L 90.472656 144.5 L 90.472656 155.5 L 82.472656 155.5 Z M 82.472656 144.5 "/>
<g style="fill:rgb(100%,0%,0%);fill-opacity:1;">
  <use xlink:href="#glyph0-1" x="82.472656" y="153.163086"/>
</g>
<path style="fill:none;stroke-width:1.2;stroke-linecap:butt;stroke-linejoin:miter;stroke:rgb(0%,0%,100%);stroke-opacity:1;stroke-miterlimit:10;" d="M 89.046875 126.378906 L 99.921875 121.589844 "/>
<path style="fill:none;stroke-width:1.2;stroke-linecap:butt;stroke-linejoin:miter;stroke:rgb(0%,0%,0%);stroke-opacity:1;stroke-miterlimit:10;" d="M 99.921875 121.589844 L 110.792969 116.800781 "/>
<path style="fill:none;stroke-width:1.2;stroke-linecap:butt;stroke-linejoin:miter;stroke:rgb(0%,0%,100%);stroke-opacity:1;stroke-miterlimit:10;" d="M 93.476562 130.539062 L 102.175781 126.707031 "/>
<path style="fill:none;stroke-width:1.2;stroke-linecap:butt;stroke-linejoin:miter;stroke:rgb(0%,0%,0%);stroke-opacity:1;stroke-miterlimit:10;" d="M 102.175781 126.707031 L 110.871094 122.875 "/>
<path style=" stroke:none;fill-rule:nonzero;fill:rgb(100%,100%,100%);fill-opacity:1;" d="M 86.046875 120.878906 L 93.046875 120.878906 L 93.046875 131.878906 L 86.046875 131.878906 Z M 86.046875 120.878906 "/>
<g style="fill:rgb(0%,0%,100%);fill-opacity:1;">
  <use xlink:href="#glyph0-2" x="86.046875" y="129.541992"/>
</g>
<path style="fill:none;stroke-width:1.2;stroke-linecap:butt;stroke-linejoin:miter;stroke:rgb(0%,0%,0%);stroke-opacity:1;stroke-miterlimit:10;" d="M 110.792969 116.800781 L 113.371094 93.179688 "/>
<path style="fill:none;stroke-width:1.2;stroke-linecap:butt;stroke-linejoin:miter;stroke:rgb(0%,0%,0%);stroke-opacity:1;stroke-miterlimit:10;" d="M 110.792969 116.800781 L 129.960938 130.84375 "/>
<path style="fill:none;stroke-width:1.2;stroke-linecap:butt;stroke-linejoin:miter;stroke:rgb(0%,0%,0%);stroke-opacity:1;stroke-miterlimit:10;" d="M 113.371094 93.179688 L 135.117188 83.597656 "/>
<path style="fill:none;stroke-width:1.2;stroke-linecap:butt;stroke-linejoin:miter;stroke:rgb(0%,0%,0%);stroke-opacity:1;stroke-miterlimit:10;" d="M 135.117188 83.597656 L 154.285156 97.640625 "/>
<path style=" stroke:none;fill-rule:nonzero;fill:rgb(0%,0%,0%);fill-opacity:1;" d="M 135.117188 83.597656 L 141.859375 60.433594 L 133.523438 59.523438 Z M 135.117188 83.597656 "/>
<path style="fill:none;stroke-width:1.2;stroke-linecap:butt;stroke-linejoin:miter;stroke:rgb(0%,0%,0%);stroke-opacity:1;stroke-miterlimit:10;" d="M 154.285156 97.640625 L 151.707031 121.261719 "/>
<path style=" stroke:none;fill-rule:nonzero;fill:rgb(0%,0%,0%);fill-opacity:1;" d="M 154.285156 97.640625 L 177.71875 91.898438 L 174.339844 84.226562 Z M 154.285156 97.640625 "/>
<path style="fill:none;stroke-width:1;stroke-linecap:butt;stroke-linejoin:miter;stroke:rgb(0%,0%,0%);stroke-opacity:1;stroke-miterlimit:10;" d="M 151.707031 121.261719 L 151.707031 121.261719 M 148.792969 121.976562 L 149.214844 122.929688 M 145.878906 122.691406 L 146.71875 124.597656 M 142.964844 123.40625 L 144.226562 126.265625 M 140.050781 124.117188 L 141.734375 127.933594 M 137.136719 124.832031 L 139.238281 129.601562 M 134.222656 125.546875 L 136.746094 131.269531 M 131.308594 126.261719 L 134.253906 132.941406 M 128.394531 126.972656 L 131.757812 134.609375 M 128.269531 127.003906 L 131.652344 134.679688 "/>
<path style="fill:none;stroke-width:1.2;stroke-linecap:butt;stroke-linejoin:miter;stroke:rgb(0%,0%,0%);stroke-opacity:1;stroke-miterlimit:10;" d="M 170.875 135.304688 L 151.707031 121.261719 "/>
<path style=" stroke:none;fill-rule:nonzero;fill:rgb(0%,0%,0%);fill-opacity:1;" d="M 129.960938 130.84375 L 123.214844 154.007812 L 131.554688 154.917969 Z M 129.960938 130.84375 "/>
<path style="fill:none;stroke-width:1.2;stroke-linecap:butt;stroke-linejoin:miter;stroke:rgb(0%,0%,0%);stroke-opacity:1;stroke-miterlimit:10;" d="M 127.382812 154.464844 L 146.554688 168.503906 "/>
<path style=" stroke:none;fill-rule:nonzero;fill:rgb(0%,0%,0%);fill-opacity:1;" d="M 168.296875 158.925781 L 144.863281 164.667969 L 148.242188 172.34375 Z M 168.296875 158.925781 "/>
<path style="fill:none;stroke-width:1.2;stroke-linecap:butt;stroke-linejoin:miter;stroke:rgb(0%,0%,0%);stroke-opacity:1;stroke-miterlimit:10;" d="M 168.296875 158.925781 L 170.875 135.304688 "/>
<path style="fill:none;stroke-width:1.2;stroke-linecap:butt;stroke-linejoin:miter;stroke:rgb(0%,0%,0%);stroke-opacity:1;stroke-miterlimit:10;" d="M 189.96875 168.675781 L 168.296875 158.925781 "/>
<path style="fill:none;stroke-width:1;stroke-linecap:butt;stroke-linejoin:miter;stroke:rgb(0%,0%,0%);stroke-opacity:1;stroke-miterlimit:10;" d="M 170.875 135.304688 L 170.875 135.304688 M 173.875 135.210938 L 173.660156 134.191406 M 176.871094 135.121094 L 176.445312 133.078125 M 179.871094 135.027344 L 179.234375 131.964844 M 182.871094 134.933594 L 182.019531 130.851562 M 185.867188 134.84375 L 184.804688 129.738281 M 188.867188 134.75 L 187.589844 128.625 M 191.863281 134.65625 L 190.375 127.511719 M 194.863281 134.566406 L 193.160156 126.398438 M 194.992188 134.5625 L 193.28125 126.351562 "/>
<path style="fill:none;stroke-width:1.2;stroke-linecap:butt;stroke-linejoin:miter;stroke:rgb(0%,0%,0%);stroke-opacity:1;stroke-miterlimit:10;" d="M 196.6875 131.605469 L 201.5625 120.769531 "/>
<path style="fill:none;stroke-width:1.2;stroke-linecap:butt;stroke-linejoin:miter;stroke:rgb(100%,0%,0%);stroke-opacity:1;stroke-miterlimit:10;" d="M 201.5625 120.769531 L 206.4375 109.933594 "/>
<path style="fill:none;stroke-width:1.2;stroke-linecap:butt;stroke-linejoin:miter;stroke:rgb(0%,0%,0%);stroke-opacity:1;stroke-miterlimit:10;" d="M 191.585938 129.308594 L 196.460938 118.476562 "/>
<path style="fill:none;stroke-width:1.2;stroke-linecap:butt;stroke-linejoin:miter;stroke:rgb(100%,0%,0%);stroke-opacity:1;stroke-miterlimit:10;" d="M 196.460938 118.476562 L 201.335938 107.640625 "/>
<path style="fill:none;stroke-width:1.2;stroke-linecap:butt;stroke-linejoin:miter;stroke:rgb(0%,0%,0%);stroke-opacity:1;stroke-miterlimit:10;" d="M 194.136719 130.457031 L 200.035156 140.769531 "/>
<path style="fill:none;stroke-width:1.2;stroke-linecap:butt;stroke-linejoin:miter;stroke:rgb(0%,0%,100%);stroke-opacity:1;stroke-miterlimit:10;" d="M 200.035156 140.769531 L 205.9375 151.082031 "/>
<path style=" stroke:none;fill-rule:nonzero;fill:rgb(100%,100%,100%);fill-opacity:1;" d="M 199.886719 103.289062 L 207.886719 103.289062 L 207.886719 114.289062 L 199.886719 114.289062 Z M 199.886719 103.289062 "/>
<g style="fill:rgb(100%,0%,0%);fill-opacity:1;">
  <use xlink:href="#glyph0-1" x="199.886719" y="111.952148"/>
</g>
<path style="fill:none;stroke-width:1.2;stroke-linecap:butt;stroke-linejoin:miter;stroke:rgb(0%,0%,100%);stroke-opacity:1;stroke-miterlimit:10;" d="M 205.9375 151.082031 L 197.953125 159.878906 "/>
<path style="fill:none;stroke-width:1.2;stroke-linecap:butt;stroke-linejoin:miter;stroke:rgb(0%,0%,0%);stroke-opacity:1;stroke-miterlimit:10;" d="M 197.953125 159.878906 L 189.96875 168.675781 "/>
<path style="fill:none;stroke-width:1.2;stroke-linecap:butt;stroke-linejoin:miter;stroke:rgb(0%,0%,100%);stroke-opacity:1;stroke-miterlimit:10;" d="M 205.9375 151.082031 L 217.746094 152.371094 "/>
<path style="fill:none;stroke-width:1.2;stroke-linecap:butt;stroke-linejoin:miter;stroke:rgb(0%,0%,0%);stroke-opacity:1;stroke-miterlimit:10;" d="M 217.746094 152.371094 L 229.558594 153.660156 "/>
<path style=" stroke:none;fill-rule:nonzero;fill:rgb(100%,100%,100%);fill-opacity:1;" d="M 202.9375 145.582031 L 209.9375 145.582031 L 209.9375 156.582031 L 202.9375 156.582031 Z M 202.9375 145.582031 "/>
<g style="fill:rgb(0%,0%,100%);fill-opacity:1;">
  <use xlink:href="#glyph0-2" x="202.9375" y="154.245117"/>
</g>
<path style="fill:none;stroke-width:1.2;stroke-linecap:butt;stroke-linejoin:miter;stroke:rgb(0%,0%,0%);stroke-opacity:1;stroke-miterlimit:10;" d="M 187.230469 169.246094 L 189.65625 180.878906 "/>
<path style="fill:none;stroke-width:1.2;stroke-linecap:butt;stroke-linejoin:miter;stroke:rgb(100%,0%,0%);stroke-opacity:1;stroke-miterlimit:10;" d="M 189.65625 180.878906 L 192.078125 192.507812 "/>
<path style="fill:none;stroke-width:1.2;stroke-linecap:butt;stroke-linejoin:miter;stroke:rgb(0%,0%,0%);stroke-opacity:1;stroke-miterlimit:10;" d="M 192.703125 168.105469 L 195.128906 179.738281 "/>
<path style="fill:none;stroke-width:1.2;stroke-linecap:butt;stroke-linejoin:miter;stroke:rgb(100%,0%,0%);stroke-opacity:1;stroke-miterlimit:10;" d="M 195.128906 179.738281 L 197.550781 191.367188 "/>
<path style=" stroke:none;fill-rule:nonzero;fill:rgb(100%,100%,100%);fill-opacity:1;" d="M 190.816406 186.4375 L 198.816406 186.4375 L 198.816406 197.4375 L 190.816406 197.4375 Z M 190.816406 186.4375 "/>
<g style="fill:rgb(100%,0%,0%);fill-opacity:1;">
  <use xlink:href="#glyph0-1" x="190.816406" y="195.100586"/>
</g>
<path style="fill:none;stroke-width:1;stroke-linecap:butt;stroke-linejoin:miter;stroke:rgb(0%,0%,0%);stroke-opacity:1;stroke-miterlimit:10;" d="M 239.136719 175.402344 L 239.136719 175.402344 M 238.421875 172.488281 L 237.46875 172.910156 M 237.707031 169.574219 L 235.800781 170.417969 M 236.996094 166.660156 L 234.132812 167.921875 M 236.28125 163.75 L 232.464844 165.429688 M 235.566406 160.835938 L 230.796875 162.9375 M 234.851562 157.921875 L 229.128906 160.441406 M 234.140625 155.007812 L 227.460938 157.949219 M 233.425781 152.09375 L 225.792969 155.457031 M 233.394531 151.96875 L 225.71875 155.347656 "/>
<path style="fill:none;stroke-width:1.2;stroke-linecap:butt;stroke-linejoin:miter;stroke:rgb(0%,0%,0%);stroke-opacity:1;stroke-miterlimit:10;" d="M 239.136719 175.402344 L 262.359375 180.433594 "/>
<path style="fill:none;stroke-width:1.2;stroke-linecap:butt;stroke-linejoin:miter;stroke:rgb(100%,0%,0%);stroke-opacity:1;stroke-miterlimit:10;" d="M 227.175781 195.933594 L 233.15625 185.667969 "/>
<path style="fill:none;stroke-width:1.2;stroke-linecap:butt;stroke-linejoin:miter;stroke:rgb(0%,0%,0%);stroke-opacity:1;stroke-miterlimit:10;" d="M 233.15625 185.667969 L 239.136719 175.402344 "/>
<path style="fill:none;stroke-width:1.2;stroke-linecap:butt;stroke-linejoin:miter;stroke:rgb(0%,0%,0%);stroke-opacity:1;stroke-miterlimit:10;" d="M 262.359375 180.433594 L 264.75 204.078125 "/>
<path style="fill:none;stroke-width:1.2;stroke-linecap:butt;stroke-linejoin:miter;stroke:rgb(0%,0%,0%);stroke-opacity:1;stroke-miterlimit:10;" d="M 264.75 204.078125 L 243.003906 213.65625 "/>
<path style="fill:none;stroke-width:1.2;stroke-linecap:butt;stroke-linejoin:miter;stroke:rgb(0%,0%,0%);stroke-opacity:1;stroke-miterlimit:10;" d="M 243.003906 213.65625 L 235.089844 204.796875 "/>
<path style="fill:none;stroke-width:1.2;stroke-linecap:butt;stroke-linejoin:miter;stroke:rgb(100%,0%,0%);stroke-opacity:1;stroke-miterlimit:10;" d="M 235.089844 204.796875 L 227.175781 195.933594 "/>
<path style=" stroke:none;fill-rule:nonzero;fill:rgb(100%,100%,100%);fill-opacity:1;" d="M 223.175781 190.433594 L 231.175781 190.433594 L 231.175781 201.433594 L 223.175781 201.433594 Z M 223.175781 190.433594 "/>
<g style="fill:rgb(100%,0%,0%);fill-opacity:1;">
  <use xlink:href="#glyph0-1" x="223.175781" y="199.09668"/>
</g>
<path style=" stroke:none;fill-rule:nonzero;fill:rgb(100%,100%,100%);fill-opacity:1;" d="M 169.027344 82.5625 L 184.027344 82.5625 L 184.027344 93.5625 L 169.027344 93.5625 Z M 169.027344 82.5625 "/>
<g style="fill:rgb(100%,0%,0%);fill-opacity:1;">
  <use xlink:href="#glyph0-1" x="169.027344" y="91.225586"/>
  <use xlink:href="#glyph0-3" x="176.369141" y="91.225586"/>
</g>
<path style=" stroke:none;fill-rule:nonzero;fill:rgb(100%,100%,100%);fill-opacity:1;" d="M 130.691406 54.476562 L 145.691406 54.476562 L 145.691406 65.476562 L 130.691406 65.476562 Z M 130.691406 54.476562 "/>
<g style="fill:rgb(100%,0%,0%);fill-opacity:1;">
  <use xlink:href="#glyph0-1" x="130.691406" y="63.139648"/>
  <use xlink:href="#glyph0-3" x="138.033203" y="63.139648"/>
</g>
</g>
</svg>

<svg xmlns="http://www.w3.org/2000/svg" xmlns:xlink="http://www.w3.org/1999/xlink" width="300pt" height="300pt" viewBox="0 0 300 300"><defs><symbol overflow="visible"><path d="M.453 1.594v-7.938h4.5v7.938zm.5-.5h3.5v-6.938h-3.5zm0 0"/></symbol><symbol overflow="visible" id="a"><path d="M3.547-5.953c-.65 0-1.164.242-1.547.72-.375.48-.563 1.13-.563 1.952 0 .835.188 1.49.563 1.967.383.48.898.72 1.547.72.644 0 1.156-.24 1.53-.72.376-.476.564-1.132.564-1.968 0-.822-.187-1.474-.562-1.954-.375-.477-.887-.72-1.53-.72zm0-.734c.914 0 1.648.312 2.203.937.55.617.828 1.438.828 2.47 0 1.042-.277 1.87-.828 2.483-.555.617-1.29.922-2.203.922-.93 0-1.668-.305-2.22-.922C.774-1.41.5-2.237.5-3.28c0-1.033.273-1.853.828-2.47.55-.625 1.29-.938 2.22-.938zm0 0"/></symbol><symbol overflow="visible" id="b"><path d="M.89-6.563H2.08l2.906 5.485v-5.484h.86V0H4.656L1.75-5.484V0H.89zm0 0"/></symbol><symbol overflow="visible" id="c"><path d="M.89-6.563h.876v2.688H5v-2.688h.89V0H5v-3.125H1.766V0H.89zm0 0"/></symbol></defs><g><path fill="#fff" d="M0 0h300v300H0z"/><path d="M35.25 240.023l2.578-23.62M41.066 238.266l2.063-18.895M29.95 237.055l2.062-18.9M37.828 216.402l2.574-23.62M40.402 192.78l21.746-9.58M62.148 183.2l2.58-23.622M64.727 159.578l10.87-4.79" stroke-width="1.2" stroke="#000" stroke-miterlimit="10" fill="none"/><path d="M75.598 154.79L86.473 150M86.473 150l1.285-11.813" stroke-width="1.2" stroke="#f00" stroke-miterlimit="10" fill="none"/><path d="M87.758 138.188l1.29-11.81" stroke-width="1.2" stroke="#00f" stroke-miterlimit="10" fill="none"/><path d="M82.473 144.5h8v11h-8zm0 0" fill="#fff"/><use xlink:href="#a" x="82.473" y="153.163" fill="#f00"/><path d="M89.047 126.38l10.875-4.79" stroke-width="1.2" stroke="#00f" stroke-miterlimit="10" fill="none"/><path d="M99.922 121.59l10.87-4.79" stroke-width="1.2" stroke="#000" stroke-miterlimit="10" fill="none"/><path d="M93.477 130.54l8.7-3.833" stroke-width="1.2" stroke="#00f" stroke-miterlimit="10" fill="none"/><path d="M102.176 126.707l8.695-3.832" stroke-width="1.2" stroke="#000" stroke-miterlimit="10" fill="none"/><path d="M86.047 120.88h7v11h-7zm0 0" fill="#fff"/><use xlink:href="#b" x="86.047" y="129.542" fill="#00f"/><path d="M110.793 116.8l2.578-23.62M110.793 116.8l19.168 14.044M113.37 93.18l21.747-9.582M135.117 83.598l19.168 14.043" stroke-width="1.2" stroke="#000" stroke-miterlimit="10" fill="none"/><path d="M135.117 83.598l6.742-23.164-8.337-.91zm0 0"/><path d="M154.285 97.64l-2.578 23.622" stroke-width="1.2" stroke="#000" stroke-miterlimit="10" fill="none"/><path d="M154.285 97.64L177.72 91.9l-3.38-7.67zm0 0"/><path d="M151.707 121.262m-2.914.715l.422.953m-3.336-.24l.84 1.908m-3.755-1.192l1.262 2.86m-4.176-2.15l1.684 3.818m-4.597-3.102l2.1 4.77m-5.014-4.055l2.523 5.723m-5.437-5.008l2.944 6.68m-5.86-5.97l3.364 7.637m-3.488-7.606l3.382 7.676" stroke="#000" stroke-miterlimit="10" fill="none"/><path d="M170.875 135.305l-19.168-14.043" stroke-width="1.2" stroke="#000" stroke-miterlimit="10" fill="none"/><path d="M129.96 130.844l-6.745 23.164 8.34.91zm0 0"/><path d="M127.383 154.465l19.172 14.04" stroke-width="1.2" stroke="#000" stroke-miterlimit="10" fill="none"/><path d="M168.297 158.926l-23.434 5.742 3.38 7.676zm0 0"/><path d="M168.297 158.926l2.578-23.62M189.97 168.676l-21.673-9.75" stroke-width="1.2" stroke="#000" stroke-miterlimit="10" fill="none"/><path d="M170.875 135.305m3-.094l-.215-1.02m3.21.93l-.425-2.042m3.426 1.95l-.636-3.063m3.637 2.97l-.85-4.083m3.847 3.992l-1.062-5.106m4.062 5.012l-1.277-6.125m4.273 6.03l-1.488-7.143m4.488 7.054l-1.703-8.168m1.832 8.165l-1.71-8.21" stroke="#000" stroke-miterlimit="10" fill="none"/><path d="M196.688 131.605l4.875-10.835" stroke-width="1.2" stroke="#000" stroke-miterlimit="10" fill="none"/><path d="M201.563 120.77l4.875-10.836" stroke-width="1.2" stroke="#f00" stroke-miterlimit="10" fill="none"/><path d="M191.586 129.31l4.875-10.833" stroke-width="1.2" stroke="#000" stroke-miterlimit="10" fill="none"/><path d="M196.46 118.477l4.876-10.836" stroke-width="1.2" stroke="#f00" stroke-miterlimit="10" fill="none"/><path d="M194.137 130.457l5.898 10.313" stroke-width="1.2" stroke="#000" stroke-miterlimit="10" fill="none"/><path d="M200.035 140.77l5.903 10.312" stroke-width="1.2" stroke="#00f" stroke-miterlimit="10" fill="none"/><path d="M199.887 103.29h8v11h-8zm0 0" fill="#fff"/><use xlink:href="#a" x="199.887" y="111.952" fill="#f00"/><path d="M205.938 151.082l-7.985 8.797" stroke-width="1.2" stroke="#00f" stroke-miterlimit="10" fill="none"/><path d="M197.953 159.88l-7.984 8.796" stroke-width="1.2" stroke="#000" stroke-miterlimit="10" fill="none"/><path d="M205.938 151.082l11.808 1.29" stroke-width="1.2" stroke="#00f" stroke-miterlimit="10" fill="none"/><path d="M217.746 152.37l11.813 1.29" stroke-width="1.2" stroke="#000" stroke-miterlimit="10" fill="none"/><path d="M202.938 145.582h7v11h-7zm0 0" fill="#fff"/><use xlink:href="#b" x="202.938" y="154.245" fill="#00f"/><path d="M187.23 169.246l2.426 11.633" stroke-width="1.2" stroke="#000" stroke-miterlimit="10" fill="none"/><path d="M189.656 180.88l2.422 11.628" stroke-width="1.2" stroke="#f00" stroke-miterlimit="10" fill="none"/><path d="M192.703 168.105l2.426 11.633" stroke-width="1.2" stroke="#000" stroke-miterlimit="10" fill="none"/><path d="M195.13 179.738l2.42 11.63" stroke-width="1.2" stroke="#f00" stroke-miterlimit="10" fill="none"/><path d="M190.816 186.438h8v11h-8zm0 0" fill="#fff"/><use xlink:href="#a" x="190.816" y="195.101" fill="#f00"/><path d="M239.137 175.402m-.715-2.914l-.953.422m.237-3.336l-1.906.844m1.196-3.758l-2.863 1.262m2.148-4.172l-3.815 1.68m3.1-4.594l-4.768 2.1m4.055-5.014l-5.723 2.52m5.01-5.434l-6.68 2.94m5.966-5.854l-7.633 3.363m7.602-3.488l-7.676 3.378" stroke="#000" stroke-miterlimit="10" fill="none"/><path d="M239.137 175.402l23.222 5.032" stroke-width="1.2" stroke="#000" stroke-miterlimit="10" fill="none"/><path d="M227.176 195.934l5.98-10.266" stroke-width="1.2" stroke="#f00" stroke-miterlimit="10" fill="none"/><path d="M233.156 185.668l5.98-10.266M262.36 180.434l2.39 23.644M264.75 204.078l-21.746 9.578M243.004 213.656l-7.914-8.86" stroke-width="1.2" stroke="#000" stroke-miterlimit="10" fill="none"/><path d="M235.09 204.797l-7.914-8.863" stroke-width="1.2" stroke="#f00" stroke-miterlimit="10" fill="none"/><path d="M223.176 190.434h8v11h-8zm0 0" fill="#fff"/><use xlink:href="#a" x="223.176" y="199.097" fill="#f00"/><path d="M169.027 82.563h15v11h-15zm0 0" fill="#fff"/><g fill="#f00"><use xlink:href="#a" x="169.027" y="91.226"/><use xlink:href="#c" x="176.369" y="91.226"/></g><path d="M130.69 54.477h15v11h-15zm0 0" fill="#fff"/><g fill="#f00"><use xlink:href="#a" x="130.691" y="63.14"/><use xlink:href="#c" x="138.033" y="63.14"/></g></g></svg>
